X:7891
T:Bald gras' icham Neckar
C:anon.
O:Germany
R:L\"andler
Z:Transcribed by Frank Nordberg - http://www.musicaviva.com
F:http://abc.musicaviva.com/tunes/germany/bald-gras-icham-neckar.abc
M:3/4
L:1/8
K:G
V:1
Bc|B2A2A2|G2B2B2|d2A2A2|d4Bc|B2A2A2|G2B2B2|d2A2AB|G4|]
V:2
z2|(DEDE).D.F|(GAGAGA)|(DEDE).D.F|G4z2|(DEDE).D.F|(GAGAGA)|(DEDE).D.F|G4|]
W:
W:
W:  From Musica Viva - http://www.musicaviva.com
W:  the Internet center for free sheet music downloads.
